assets/img/calendar.svg

<svg enable-background="new 0 0 24 24" height="24" viewBox="0 0 24 24" width="24" xmlns="http://www.w3.org/2000/svg"><path d="m20.044 21.255.021-13.64-16.11-.023-.021 13.639c-.001.148.122.273.275.273l15.562.025c.148.001.273-.125.273-.274zm2.22-15.832-.024 16.109c-.002 1.215-.987 2.194-2.199 2.193l-16.11-.026c-1.213-.001-2.196-.982-2.194-2.196l.023-16.11c.001-1.213.987-2.194 2.2-2.192l2.197.004.003-2.383c.002-.301.25-.549.55-.549l1.832.003c.302 0 .548.248.547.55l-.003 2.383 5.857.009.005-2.383c.001-.302.247-.549.55-.549l1.831.002c.302.001.55.248.549.551l-.003 2.381 2.195.003c1.213.005 2.195.986 2.194 2.2zm-4.411 11.892.004-1.831c0-.304-.247-.547-.55-.547l-1.83-.004c-.304 0-.55.244-.55.548l-.002 1.828c-.001.306.245.552.547.552l1.831.003c.302 0 .55-.245.55-.549zm-8.789-.014.004-1.828c0-.305-.246-.55-.549-.55l-1.83-.003c-.302 0-.549.245-.55.548l-.002 1.829c-.001.305.246.55.548.55l1.831.004c.302 0 .548-.246.548-.55zm4.393.009.004-1.831c0-.303-.245-.548-.548-.55l-1.829-.003c-.304 0-.552.244-.552.548l-.003 1.83c0 .306.247.551.549.552l1.83.002c.305 0 .549-.243.549-.548zm4.403-4.388.003-1.831c0-.302-.247-.55-.549-.55l-1.831-.003c-.302 0-.55.247-.55.549l-.004 1.833c-.001.302.246.551.549.551l1.83.001c.303-.001.552-.248.552-.55zm-4.395-.006.003-1.831c.001-.303-.245-.551-.548-.551l-1.831-.002c-.302 0-.55.246-.55.549l-.003 1.831c0 .303.246.55.548.552l1.832.001c.303.001.548-.246.549-.549zm-4.943.542-1.831-.003c-.303 0-.549-.248-.549-.55l.003-1.831c0-.302.248-.55.55-.549l1.831.002c.302.001.547.248.547.551l-.002 1.832c0 .301-.247.548-.549.548z" fill="#c61f48"/></svg>

<?xml version="1.0" encoding="utf-8"?>
<!-- Generator: Adobe Illustrator 16.0.4, SVG Export Plug-In . SVG Version: 6.00 Build 0)  -->
<!DOCTYPE svg PUBLIC "-//W3C//DTD SVG 1.1//EN" "http://www.w3.org/Graphics/SVG/1.1/DTD/svg11.dtd">
<svg version="1.1" id="Layer_1" xmlns="http://www.w3.org/2000/svg" xmlns:xlink="http://www.w3.org/1999/xlink" x="0px" y="0px"
	 width="24px" height="24px" viewBox="0 0 24 24" enable-background="new 0 0 24 24" xml:space="preserve">
<path fill="#C61F48" d="M20.044,21.255l0.021-13.64L3.955,7.592L3.934,21.231c-0.001,0.148,0.122,0.273,0.275,0.273l15.562,0.025
	C19.919,21.53,20.044,21.404,20.044,21.255z M22.264,5.423L22.24,21.532c-0.002,1.215-0.987,2.194-2.199,2.193l-16.11-0.026
	c-1.213-0.001-2.196-0.982-2.194-2.196L1.76,5.393c0.001-1.213,0.987-2.194,2.2-2.192l2.197,0.004l0.003-2.383
	C6.162,0.521,6.41,0.273,6.71,0.273l1.832,0.003c0.302,0,0.548,0.248,0.547,0.55L9.086,3.209l5.857,0.009l0.005-2.383
	c0.001-0.302,0.247-0.549,0.55-0.549l1.831,0.002c0.302,0.001,0.55,0.248,0.549,0.551l-0.003,2.381l2.195,0.003
	C21.283,3.228,22.265,4.209,22.264,5.423z M17.853,17.315l0.004-1.831c0-0.304-0.247-0.547-0.55-0.547l-1.83-0.004
	c-0.304,0-0.55,0.244-0.55,0.548l-0.002,1.828c-0.001,0.306,0.245,0.552,0.547,0.552l1.831,0.003
	C17.605,17.864,17.853,17.619,17.853,17.315z M9.064,17.301l0.004-1.828c0-0.305-0.246-0.55-0.549-0.55l-1.83-0.003
	c-0.302,0-0.549,0.245-0.55,0.548l-0.002,1.829c-0.001,0.305,0.246,0.55,0.548,0.55l1.831,0.004
	C8.818,17.851,9.064,17.605,9.064,17.301z M13.457,17.31l0.004-1.831c0-0.303-0.245-0.548-0.548-0.55l-1.829-0.003
	c-0.304,0-0.552,0.244-0.552,0.548l-0.003,1.83c0,0.306,0.247,0.551,0.549,0.552l1.83,0.002
	C13.213,17.858,13.457,17.615,13.457,17.31z M17.86,12.922l0.003-1.831c0-0.302-0.247-0.55-0.549-0.55l-1.831-0.003
	c-0.302,0-0.55,0.247-0.55,0.549l-0.004,1.833c-0.001,0.302,0.246,0.551,0.549,0.551l1.83,0.001
	C17.611,13.471,17.86,13.224,17.86,12.922z M13.465,12.916l0.003-1.831c0.001-0.303-0.245-0.551-0.548-0.551l-1.831-0.002
	c-0.302,0-0.55,0.246-0.55,0.549l-0.003,1.831c0,0.303,0.246,0.55,0.548,0.552l1.832,0.001
	C13.219,13.466,13.464,13.219,13.465,12.916z M8.522,13.458l-1.831-0.003c-0.303,0-0.549-0.248-0.549-0.55l0.003-1.831
	c0-0.302,0.248-0.55,0.55-0.549l1.831,0.002c0.302,0.001,0.547,0.248,0.547,0.551L9.071,12.91
	C9.071,13.211,8.824,13.458,8.522,13.458z"/>
</svg>
